src/topics/icons/appmaker.svg

<svg height="327" preserveAspectRatio="xMidYMid" viewBox="0 0 256 327" width="256" xmlns="http://www.w3.org/2000/svg"><path d="m88.7 326.4 67.4-10.4-91.9-76s-47.8 6.3-55.5 7.9c-14.1 3-5.5 8.4-5.5 8.4z" fill="#231f20" opacity=".2"/><g transform="translate(57 207)"><path d="m3.6 3 .1.1-3.1 2.7v84.5l1.9 5.1 29.5 23.8 1.1-2.2v-89.3l-1.1-1.7z" fill="#178faa"/><path d="m198.6 90v-85.3l-2.9-2.9.6-.9-164.3 25v93.3l163.8-25z" fill="#22a9cd"/><path d="m.5 90.2 2 5.3 29.5 23.7v-3.7z" opacity=".15"/><path d="m198.5 90.2-166.5 25.3v3.7l163.8-25z" opacity=".15"/></g><g transform="translate(57 116)"><path d="m.6.7v.3l2.8 4.1-2.8 2.5v82.6l3.1 3.9-.4.4 28.8 23.2 1.5-1.6v-87.7l-1.5-2.2z" fill="#d8aa29"/><path d="m198.6 88.8v-82.6l-2.9-2.9 1.6-2.3-165.3 25.1v91.6l163.7-24.9z" fill="#ffcd18"/><path d="m.6 88.7v1.5l3.2 4-.5.4 28.8 23.2v-3.7z" opacity=".12"/></g><g transform="translate(57)"><path d="m.5 27.1 166.6-25.4 31.5 25.4-2.3 2-164.5 25.2-29.3-23.5z" fill="#3cd6a3"/><path d="m111.6 10.2 32.9-5.1 13.8 11.3-32.9 5.1z" fill="#35b48c"/><path d="m24.3 23.5 32.9-5.1 13.8 11.3-32.9 5.1z" fill="#35b48c"/><path d="m123.9 19.5c0 2.9 7.7 5.3 17.3 5.3s17.3-2.4 17.3-5.3v-13.5h-34.6z" fill="#219972"/><path d="m123.9 5.9c0 2.9 7.7 5.3 17.3 5.3s17.3-2.4 17.3-5.3-7.7-5.3-17.3-5.3c-9.5.1-17.3 2.4-17.3 5.3" fill="#3cd6a3"/><path d="m36.9 32.9c0 2.9 7.7 5.3 17.3 5.3s17.3-2.4 17.3-5.3v-13.5h-34.6z" fill="#219972"/><path d="m36.9 19.3c0 2.9 7.7 5.3 17.3 5.3s17.3-2.4 17.3-5.3-7.7-5.3-17.3-5.3-17.3 2.4-17.3 5.3" fill="#3cd6a3"/><path d="m.6 27.2v89.8l2.7 3.9 28.8 23.2 1-2.2v-87.8l-1-1.6z" fill="#219972"/><path d="m198.6 115.1v-88l-166.6 25.4v91.6l163.7-24.9z" fill="#35b48c"/><path d="m.5 115.1v1.9l2.8 4 28.7 23.1v-3.7z" opacity=".15"/></g><path d="m216.4 246.5c-22.3 3.4-76.2 11.6-85.1 13-11.3 1.7-11.1-10.6-11.1-10.6v-152s-.7-8.4 7.7-9.7c24.9-3.8 87.2-13.3 91.8-14 5.9-.9 6.4 5.1 6.4 5.1v156.4c0 .1.1 10.3-9.7 11.8zm-106.5 45.4c.2 3.5 1.8 12.5 12.9 10.8 4.3-.6 25.5-3.9 51-7.8 25.1-3.8 45.6-6.9 49.8-7.6 11-1.7 12.7-11.1 12.9-14.7v-199.2-7.6s-.8-14-12.9-12.1c-8.4 1.3-92.4 14.1-100.8 15.4-13.7 2.1-12.9 16-12.9 16v7.6 198.4.2z" fill="#fff" opacity=".8"/><path d="m255.6 204.8-166.6 25.3v3.7l163.7-24.9z" opacity=".12"/><path d="m255.6 115.1-166.6 25.3v3.7l163.7-24.9z" opacity=".1"/><path d="m164.6 273.8c0 5.1 3.8 8.7 8.5 8s8.5-5.4 8.5-10.6c0-5.1-3.8-8.7-8.5-8s-8.5 5.4-8.5 10.6" fill="#34b1de"/></svg>

<?xml version="1.0" encoding="UTF-8" standalone="no"?>
<svg width="256px" height="327px" viewBox="0 0 256 327" version="1.1" xmlns="http://www.w3.org/2000/svg" xmlns:xlink="http://www.w3.org/1999/xlink" preserveAspectRatio="xMidYMid">
	<g>
		<path d="M88.7,326.4 L156.1,316 L64.2,240 C64.2,240 16.4,246.3 8.7,247.9 C-5.4,250.9 3.2,256.3 3.2,256.3 L88.7,326.4 L88.7,326.4 Z" opacity="0.2" fill="#231F20"></path>
		<g transform="translate(57.000000, 207.000000)">
			<path d="M3.6,3 L3.7,3.1 L0.6,5.8 L0.6,90.3 L2.5,95.4 L32,119.2 L33.1,117 L33.1,27.7 L32,26 L3.6,3 L3.6,3 Z" fill="#178FAA"></path>
			<path d="M198.6,90 L198.6,4.7 L195.7,1.8 L196.3,0.9 L32,25.9 L32,119.2 L195.8,94.2 L198.6,90 L198.6,90 Z" fill="#22A9CD"></path>
			<path d="M0.5,90.2 L2.5,95.5 L32,119.2 L32,115.5 L0.5,90.2 L0.5,90.2 Z" opacity="0.15" fill="#000000"></path>
			<path d="M198.5,90.2 L32,115.5 L32,119.2 L195.8,94.2 L198.5,90.2 L198.5,90.2 Z" opacity="0.15" fill="#000000"></path>
		</g>
		<g transform="translate(57.000000, 116.000000)">
			<path d="M0.6,0.7 L0.6,1 L3.4,5.1 L0.6,7.6 L0.6,90.2 L3.7,94.1 L3.3,94.5 L32.1,117.7 L33.6,116.1 L33.6,28.4 L32.1,26.2 L0.6,0.7 L0.6,0.7 Z" fill="#D8AA29"></path>
			<path d="M198.6,88.8 L198.6,6.2 L195.7,3.3 L197.3,1 L32,26.1 L32,117.7 L195.7,92.8 L198.6,88.8 L198.6,88.8 Z" fill="#FFCD18"></path>
			<path d="M0.6,88.7 L0.6,90.2 L3.8,94.2 L3.3,94.6 L32.1,117.8 L32.1,114.1 L0.6,88.7 L0.6,88.7 Z" opacity="0.12" fill="#000000"></path>
		</g>
		<g transform="translate(57.000000, 0.000000)">
			<path d="M0.5,27.1 L167.1,1.7 L198.6,27.1 L196.3,29.1 L31.8,54.3 L2.5,30.8 L0.5,27.1 L0.5,27.1 Z" fill="#3CD6A3"></path>
			<path d="M111.6,10.2 L144.5,5.1 L158.3,16.4 L125.4,21.5 L111.6,10.2 L111.6,10.2 Z" fill="#35B48C"></path>
			<path d="M24.3,23.5 L57.2,18.4 L71,29.7 L38.1,34.8 L24.3,23.5 L24.3,23.5 Z" fill="#35B48C"></path>
			<path d="M123.9,19.5 C123.9,22.4 131.6,24.8 141.2,24.8 C150.8,24.8 158.5,22.4 158.5,19.5 L158.5,6 L123.9,6 L123.9,19.5 L123.9,19.5 Z" fill="#219972"></path>
			<path d="M123.9,5.9 C123.9,8.8 131.6,11.2 141.2,11.2 C150.8,11.2 158.5,8.8 158.5,5.9 C158.5,3 150.8,0.6 141.2,0.6 C131.7,0.7 123.9,3 123.9,5.9" fill="#3CD6A3"></path>
			<path d="M36.9,32.9 C36.9,35.8 44.6,38.2 54.2,38.2 C63.8,38.2 71.5,35.8 71.5,32.9 L71.5,19.4 L36.9,19.4 L36.9,32.9 L36.9,32.9 Z" fill="#219972"></path>
			<path d="M36.9,19.3 C36.9,22.2 44.6,24.6 54.2,24.6 C63.8,24.6 71.5,22.2 71.5,19.3 C71.5,16.4 63.8,14 54.2,14 C44.6,14 36.9,16.4 36.9,19.3" fill="#3CD6A3"></path>
			<path d="M0.6,27.2 L0.6,117 L3.3,120.9 L32.1,144.1 L33.1,141.9 L33.1,54.1 L32.1,52.5 L0.6,27.2 L0.6,27.2 Z" fill="#219972"></path>
			<path d="M198.6,115.1 L198.6,27.1 L32,52.5 L32,144.1 L195.7,119.2 L198.6,115.1 L198.6,115.1 Z" fill="#35B48C"></path>
			<path d="M0.5,115.1 L0.5,117 L3.3,121 L32,144.1 L32,140.4 L0.5,115.1 L0.5,115.1 Z" opacity="0.15" fill="#000000"></path>
		</g>
		<path d="M216.4,246.5 C194.1,249.9 140.2,258.1 131.3,259.5 C120,261.2 120.2,248.9 120.2,248.9 L120.2,96.9 C120.2,96.9 119.5,88.5 127.9,87.2 C152.8,83.4 215.1,73.9 219.7,73.2 C225.6,72.3 226.1,78.3 226.1,78.3 L226.1,234.7 C226.1,234.8 226.2,245 216.4,246.5 L216.4,246.5 L216.4,246.5 Z M109.9,291.9 L109.9,291.9 C110.1,295.4 111.7,304.4 122.8,302.7 C127.1,302.1 148.3,298.8 173.8,294.9 C198.9,291.1 219.4,288 223.6,287.3 C234.6,285.6 236.3,276.2 236.5,272.6 L236.5,272.6 L236.5,73.4 L236.5,65.8 C236.5,65.8 235.7,51.8 223.6,53.7 C215.2,55 131.2,67.8 122.8,69.1 C109.1,71.2 109.9,85.1 109.9,85.1 L109.9,92.7 L109.9,291.1 L109.9,291.3 L109.9,291.9 L109.9,291.9 Z" opacity="0.8" fill="#FFFFFF"></path>
		<path d="M255.6,204.8 L255.6,204.8 L89,230.1 L89,233.8 L252.7,208.9 L255.6,204.8 L255.6,204.8 Z" opacity="0.12" fill="#000000"></path>
		<path d="M255.6,115.1 L255.6,115.1 L89,140.4 L89,144.1 L252.7,119.2 L255.6,115.1 L255.6,115.1 Z" opacity="0.1" fill="#000000"></path>
		<path d="M164.6,273.8 C164.6,278.9 168.4,282.5 173.1,281.8 C177.8,281.1 181.6,276.4 181.6,271.2 C181.6,266.1 177.8,262.5 173.1,263.2 C168.4,263.9 164.6,268.6 164.6,273.8" fill="#34B1DE"></path>
	</g>
</svg>
